X:57
%%NRChange 2016-08-16
T: Oh, Kunne Du Mit Hjerte Se
R: Fannik
O: Danish (Fan\/o)
M: 2/4
L: 1/8
Q:1/4=80
K: D
P:A
A | "D"d>e ff | e(d A)A/B/ | "C"=c(B/A/) "G"GB | "D"A3:|
P:B
d | "A"e>(f g)ue | "D"a(a a)e/f/ | "G"g(f/e/) "D"df | "A"!trill!e3 d | 
e>g fuf | "D"{f}e(d A)A/B/ | "C"=c(B/A/) "G"GB | "D"A3 :|

